X: 3251
M: 6/8
L: 1/8
K: G
ug |\
dBG GAB | vc2vB uA2uG |\
dBG GAG | A2B c2g |\
dBG GAB | c2B A2G |\
|: d |\
ece dBd | ece dBd |\
efg dBG | A2B c2e |\
def gfe | dcB A2G |\


